svg/sph4u/wave-refraction.svg

<svg xmlns="http://www.w3.org/2000/svg" viewBox="0 0 441 262.16" xml:space="preserve"><path fill="none" stroke="#000" stroke-width="2" stroke-miterlimit="10" stroke-dasharray="10" d="M209 35.16v227"/><path fill="none" stroke="#000" stroke-miterlimit="10" d="M180.5 35.16v227M150.5 35.16v227M120.5 35.16v227M90.5 35.16v227M60.5 35.16v227M30.5 35.16v227M.5 35.16v227M440.5 35.16v227M422.5 35.16v227M404.5 35.16v227M386.5 35.16v227M368.5 35.16v227M350.5 35.16v227M332.5 35.16v227M314.5 35.16v227M296.5 35.16v227M278.5 35.16v227M260.5 35.16v227M242.5 35.16v227M224.5 35.16v227"/><text transform="translate(168.958 20.16)" font-family="'Concourse T3'" font-size="24">interface</text></svg>

<svg xmlns="http://www.w3.org/2000/svg" viewBox="0 0 441 262.16" xml:space="preserve"><path fill="none" stroke="#000" stroke-width="2" stroke-miterlimit="10" stroke-dasharray="10" d="M209 35.16v227"/><path fill="none" stroke="#000" stroke-miterlimit="10" d="M180.5 35.16v227m-30-227v227m-30-227v227m-30-227v227m-30-227v227m-30-227v227m-30-227v227m440-227v227m-18-227v227m-18-227v227m-18-227v227m-18-227v227m-18-227v227m-18-227v227m-18-227v227m-18-227v227m-18-227v227m-18-227v227m-18-227v227m-18-227v227"/><text transform="translate(168.958 20.16)" font-family="'Concourse T3'" font-size="24">interface</text></svg>
